material/.icons/material/file-swap-outline.svg

<svg xmlns="http://www.w3.org/2000/svg" viewBox="0 0 24 24"><path d="M17 15l-3-3v2h-4v-2l-3 3 3 3v-2h4v2m0-16H6a2 2 0 00-2 2v16a2 2 0 002 2h12a2 2 0 002-2V8l-6-6m4 18H6V4h7v5h5z"/></svg>

<?xml version="1.0" encoding="UTF-8"?><!DOCTYPE svg PUBLIC "-//W3C//DTD SVG 1.1//EN" "http://www.w3.org/Graphics/SVG/1.1/DTD/svg11.dtd"><svg xmlns="http://www.w3.org/2000/svg" xmlns:xlink="http://www.w3.org/1999/xlink" version="1.1" id="mdi-file-swap-outline" width="24" height="24" viewBox="0 0 24 24"><path d="M17 15L14 12V14H10V12L7 15L10 18V16H14V18M14 2H6A2 2 0 0 0 4 4V20A2 2 0 0 0 6 22H18A2 2 0 0 0 20 20V8L14 2M18 20H6V4H13V9H18Z" /></svg>
